svg/u1f1f1.svg

<svg viewBox="0 0 128 128" xmlns="http://www.w3.org/2000/svg">
  <path d="m102.89 99.51h-45.65v-82c0-1.24-1-2.24-2.24-2.24h-21.89c-1.24 0-2.24 1-2.24 2.24v100.96c0 1.24 1 2.24 2.24 2.24h69.79c1.24 0 2.24-1 2.24-2.24v-16.72c-0.01-1.24-1.01-2.24-2.25-2.24z" fill="#40C0E7"/>
</svg>

<svg viewBox="0 0 128 128" xmlns="http://www.w3.org/2000/svg">
  <defs/>
  <path d="M102.89,99.51 L57.24,99.51 L57.24,17.51 C57.24,16.27 56.24,15.27 55,15.27 L33.11,15.27 C31.87,15.27 30.87,16.27 30.87,17.51 L30.87,118.47 C30.87,119.71 31.87,120.71 33.11,120.71 L102.9,120.71 C104.14,120.71 105.14,119.71 105.14,118.47 L105.14,101.75 C105.13,100.51 104.13,99.51 102.89,99.51 Z" fill="#40C0E7"/>
</svg>
